exported-svg/arrow-down-circle.svg

<svg height="24" viewBox="0 0 24 24" width="24" xmlns="http://www.w3.org/2000/svg"><path d="m12 15.2928932v-6.7928932c0-.27614237.2238576-.5.5-.5s.5.22385763.5.5v6.7928932l3.1464466-3.1464466c.1952622-.1952621.5118446-.1952621.7071068 0 .1952621.1952622.1952621.5118446 0 .7071068l-4 4c-.1952622.1952621-.5118446.1952621-.7071068 0l-3.99999999-4c-.19526215-.1952622-.19526215-.5118446 0-.7071068.19526215-.1952621.51184463-.1952621.70710678 0zm.5 7.7071068c-5.79898987 0-10.5-4.7010101-10.5-10.5 0-5.79898987 4.70101013-10.5 10.5-10.5 5.7989899 0 10.5 4.70101013 10.5 10.5 0 5.7989899-4.7010101 10.5-10.5 10.5zm0-1c5.2467051 0 9.5-4.2532949 9.5-9.5 0-5.24670512-4.2532949-9.5-9.5-9.5-5.24670512 0-9.5 4.25329488-9.5 9.5 0 5.2467051 4.25329488 9.5 9.5 9.5z"/></svg>

<?xml version="1.0" encoding="UTF-8"?>
<svg width="24px" height="24px" viewBox="0 0 24 24" version="1.1" xmlns="http://www.w3.org/2000/svg" xmlns:xlink="http://www.w3.org/1999/xlink">
    <!-- Generator: Sketch 55.2 (78181) - https://sketchapp.com -->
    <title>arrow-down-circle</title>
    <desc>Created with Sketch.</desc>
    <g id="arrow-down-circle" stroke="none" stroke-width="1" fill="none" fill-rule="evenodd">
        <path d="M12,15.2928932 L12,8.5 C12,8.22385763 12.2238576,8 12.5,8 C12.7761424,8 13,8.22385763 13,8.5 L13,15.2928932 L16.1464466,12.1464466 C16.3417088,11.9511845 16.6582912,11.9511845 16.8535534,12.1464466 C17.0488155,12.3417088 17.0488155,12.6582912 16.8535534,12.8535534 L12.8535534,16.8535534 C12.6582912,17.0488155 12.3417088,17.0488155 12.1464466,16.8535534 L8.14644661,12.8535534 C7.95118446,12.6582912 7.95118446,12.3417088 8.14644661,12.1464466 C8.34170876,11.9511845 8.65829124,11.9511845 8.85355339,12.1464466 L12,15.2928932 Z M12.5,23 C6.70101013,23 2,18.2989899 2,12.5 C2,6.70101013 6.70101013,2 12.5,2 C18.2989899,2 23,6.70101013 23,12.5 C23,18.2989899 18.2989899,23 12.5,23 Z M12.5,22 C17.7467051,22 22,17.7467051 22,12.5 C22,7.25329488 17.7467051,3 12.5,3 C7.25329488,3 3,7.25329488 3,12.5 C3,17.7467051 7.25329488,22 12.5,22 Z" id="Combined-Shape" fill="#000000" fill-rule="nonzero"></path>
    </g>
</svg>
